X: 1
T: Cold Blow And The Rainy Night
M: 6/8
L: 1/8
R: jig
K: Gmaj
A|:D2G G2E|F2G A2d|d2A A2G|F2A D2A|
D2G G2E|F2G A2d|d2G B2A|G3 G3:|
